X: 9187
T: Daly's Mill
R: polka
M: 2/4
K: Amajor
|:E|Ac ef|ec c/d/c/B/|Ac ef|e2 ec|
Ac ef|ec c/d/c/B/|AF FE|A3:|
|:d/e/|fe cB|AF FE|A>A Ac|e2 ed/e/|
fe cB|AF FE|A>A AF|A3:|

